fa/svgs/regular/hand-point-down.svg

<svg xmlns="http://www.w3.org/2000/svg" viewBox="0 0 448 512"><!--! Font Awesome Free 6.1.1 by @fontawesome - https://fontawesome.com License - https://fontawesome.com/license/free (Icons: CC BY 4.0, Fonts: SIL OFL 1.1, Code: MIT License) Copyright 2022 Fonticons, Inc.--><path d="M448 248V144C448 64.6 385.1 0 307.7 0H199.8c-23.4 0-46.7 6.104-67.3 17.65L76.63 49C49.1 64.47 32 94.02 32 126.1V176c0 27.23 12.51 51.53 32 67.69V440c0 39.7 32.3 72 72 72s72-32.3 72-72v-56.44c2.6.34 5.3.44 8 .44 25.95 0 48.73-13.79 61.4-34.43 5.9 1.63 12.2 2.43 18.6 2.43 25.95 0 48.73-13.79 61.4-34.43 5.9 1.63 12.2 2.43 18.6 2.43 39.7 0 72-32.3 72-72zm-176-16c0-13.23 10.78-24 24-24s24 10.9 24 24.1V280c0 13.23-10.78 24-24 24s-24-10.8-24-24v-48zm-80 32h12c12.39 0 23.93-3.264 34.27-8.545C239.3 258.1 240 260.1 240 264v48c0 13.23-10.78 24-24 24s-24-10.8-24-24v-48zm-80 0c0-.281.15-.514.16-.793 2.64.193 5.14.793 7.84.793h40v176c0 13.23-10.78 24-24 24s-24-10.8-24-24V264zm285.9-140.2c-7-2.2-14.2-3.8-21.9-3.8-29.04 0-53.96 17.37-65.34 42.18C305.8 161.2 301 160 296 160c-7.139 0-13.96 1.273-20.46 3.355C265.2 133.6 237.2 112 204 112h-52c-13.2 0-24 10.8-24 24s10.8 24 24 24h52c15.44 0 28 12.56 28 28s-12.6 28-28 28h-84c-22.06 0-40-17.9-40-40v-49.9c0-14.77 7.719-28.28 20.16-35.27l55.78-31.34C169.4 51.98 184.6 48 199.8 48h107.9c44.2 0 81.2 32.56 90.2 75.8zM400 248c0 13.23-10.78 24-24 24s-24-10.8-24-24v-56c0-13.23 10.78-24 24-24s24 10.8 24 24v56z"/></svg>

<svg xmlns="http://www.w3.org/2000/svg" viewBox="0 0 448 512"><!--! Font Awesome Free 6.2.1 by @fontawesome - https://fontawesome.com License - https://fontawesome.com/license/free (Icons: CC BY 4.0, Fonts: SIL OFL 1.1, Code: MIT License) Copyright 2022 Fonticons, Inc. --><path d="M448 248V144C448 64.6 385.1 0 307.7 0H199.8C176.4 0 153.1 6.104 132.5 17.65L76.63 49C49.1 64.47 32 94.02 32 126.1V176c0 27.23 12.51 51.53 32 67.69V440C64 479.7 96.3 512 136 512s72-32.3 72-72v-56.44C210.6 383.9 213.3 384 216 384c25.95 0 48.73-13.79 61.4-34.43C283.3 351.2 289.6 352 296 352c25.95 0 48.73-13.79 61.4-34.43C363.3 319.2 369.6 320 376 320C415.7 320 448 287.7 448 248zM272 232c0-13.23 10.78-24 24-24S320 218.9 320 232.1V280c0 13.23-10.78 24-24 24S272 293.2 272 280V232zM192 264h12c12.39 0 23.93-3.264 34.27-8.545C239.3 258.1 240 260.1 240 264v48c0 13.23-10.78 24-24 24S192 325.2 192 312V264zM112 264c0-.2813 .1504-.5137 .1602-.793C114.8 263.4 117.3 264 120 264H160v176c0 13.23-10.78 24-24 24S112 453.2 112 440V264zM397.9 123.8C390.9 121.6 383.7 120 376 120c-29.04 0-53.96 17.37-65.34 42.18C305.8 161.2 301 160 296 160c-7.139 0-13.96 1.273-20.46 3.355C265.2 133.6 237.2 112 204 112H152C138.8 112 128 122.8 128 136S138.8 160 152 160h52c15.44 0 28 12.56 28 28S219.4 216 204 216H120C97.94 216 80 198.1 80 176V126.1c0-14.77 7.719-28.28 20.16-35.27l55.78-31.34C169.4 51.98 184.6 48 199.8 48h107.9C351.9 48 388.9 80.56 397.9 123.8zM400 248c0 13.23-10.78 24-24 24S352 261.2 352 248V192c0-13.23 10.78-24 24-24S400 178.8 400 192V248z"/></svg>
